X:2672
T:Carnival Hornpipe
R:Hornpipe
M:2/4
L:1/16
K:A
ed|cAcf e2ed|cAcf e2ef|edB2 edB2|egba gfed|
cAcf e2ed|cAcf e2ef|edBf edBG|A2c2 A2:|
K:E
GA|Bege B2GA|Bege B2fg|agfe dcBA|GBAc B2GA|
Bege B2GA|Bege B2fg|agfe dBcd|e2g2 e2:|


